X:225
T:The Tilly Lamp
C:Zoë Conway
Z:robin.beech@mcgill.ca
S:Zoë Conway - Zoë Conway
R:reel
M:4/4
L:1/8
K:Gmix
G3A BDGB | AcAG ^FDDE | F3G ABcA | dcAG FDCD |
G3A BDGB | ABcA d3e | f3d cAFG |1 AdcA G4 :|2 AdcA GABd |:
g3a g^fdc | Bcde ^fdef | g3a g^fde | =fgdf ecce |
g3a g^fdc | ABcA d3e | =f3d cAFG |1 AdcA GABd :|2 AdcA G4 |]
